X: 21353
T: Kerry Cow, The
R: polka
M: 2/4
K: Dmajor
|:A>B AG|F A d>d|EF GF|EF G ^G|
A>B AG|F A d>d|cA GE|D2 D2:|
|:d>e fd|cA A>A|BG G/A/B/G/|BA A2|
d>e fd|ca a>a|ba ge|d2 d2:|

